alura/assets/api/cursos/projeto-modulo03.svg

<svg width="36" height="36" viewBox="0 0 36 36" fill="none" xmlns="http://www.w3.org/2000/svg">
<path d="M12.5282 12.8879H18.7202V14.3279H12.5282V12.8879ZM12.5282 16.1279H16.5602V17.5679H12.5282V16.1279ZM12.5282 19.4399H16.5602V20.8799H12.5282V19.4399Z" fill="#FF65B8"/>
<path d="M26.7841 18.36C26.7841 16.416 25.3441 14.76 23.4721 14.4V9.21596H9.28815V24.552H18.4321V23.112H10.7281V10.656H22.0321V14.4C20.1601 14.76 18.7201 16.344 18.7201 18.36C18.7201 19.44 19.1521 20.376 19.8001 21.096V26.784L22.6801 25.344L25.5601 26.784V21.096C26.3521 20.376 26.7841 19.368 26.7841 18.36ZM22.7521 15.768C24.1921 15.768 25.3441 16.92 25.3441 18.36C25.3441 19.8 24.1921 20.952 22.7521 20.952C21.3121 20.952 20.1601 19.8 20.1601 18.36C20.2321 16.92 21.3841 15.768 22.7521 15.768ZM22.7521 23.76L21.3121 24.48V22.032C21.7441 22.248 22.2481 22.32 22.7521 22.32C23.2561 22.32 23.7601 22.248 24.1921 22.032V24.48L22.7521 23.76Z" fill="#FF65B8"/>
<path d="M36 18C36 27.9411 27.9411 36 18 36C8.05887 36 0 27.9411 0 18C0 8.05887 8.05887 0 18 0C27.9411 0 36 8.05887 36 18ZM2.13734 18C2.13734 26.7607 9.23929 33.8627 18 33.8627C26.7607 33.8627 33.8627 26.7607 33.8627 18C33.8627 9.23929 26.7607 2.13734 18 2.13734C9.23929 2.13734 2.13734 9.23929 2.13734 18Z" fill="#FF65B8"/>
</svg>

<svg xmlns="http://www.w3.org/2000/svg" fill="none" viewBox="0 0 36 36"><path fill="#FF65B8" d="M12.528 12.888h6.192v1.44h-6.192v-1.44zm0 3.24h4.032v1.44h-4.032v-1.44zm0 3.312h4.032v1.44h-4.032v-1.44z"/><path fill="#FF65B8" d="M26.784 18.36c0-1.944-1.44-3.6-3.312-3.96V9.216H9.288v15.336h9.144v-1.44h-7.704V10.656h11.304V14.4c-1.872.36-3.312 1.944-3.312 3.96 0 1.08.432 2.016 1.08 2.736v5.688l2.88-1.44 2.88 1.44v-5.688a3.72 3.72 0 001.224-2.736zm-4.032-2.592a2.581 2.581 0 012.592 2.592 2.581 2.581 0 01-2.592 2.592 2.581 2.581 0 01-2.592-2.592c.072-1.44 1.224-2.592 2.592-2.592zm0 7.992l-1.44.72v-2.448c.432.216.936.288 1.44.288.504 0 1.008-.072 1.44-.288v2.448l-1.44-.72z"/><path fill="#FF65B8" d="M36 18c0 9.941-8.059 18-18 18S0 27.941 0 18 8.059 0 18 0s18 8.059 18 18zM2.137 18c0 8.76 7.102 15.863 15.863 15.863 8.76 0 15.863-7.102 15.863-15.863C33.863 9.24 26.76 2.137 18 2.137S2.137 9.24 2.137 18z"/></svg>
